wilib/img/svg/btn-seta-esq.svg

<svg xmlns="http://www.w3.org/2000/svg" xmlns:xlink="http://www.w3.org/1999/xlink" preserveAspectRatio="none" width="358" height="407" viewBox="0 0 358 407"><defs><linearGradient id="a" gradientUnits="userSpaceOnUse" x1="49.538" y1="45.85" x2="90.263" y2="45.85"><stop offset="0%" stop-color="#D9E021" stop-opacity=".4"/><stop offset="100%" stop-color="#FFF" stop-opacity=".4"/></linearGradient><linearGradient id="b" gradientUnits="userSpaceOnUse" x1="88.75" y1="38.15" x2="59.65" y2="38.15"><stop offset="0%" stop-color="#FFF" stop-opacity="0"/><stop offset="100%" stop-color="#8CC63F" stop-opacity=".4"/></linearGradient><linearGradient id="c" gradientUnits="userSpaceOnUse" x1="55.413" y1="49.65" x2="6.387" y2="49.65"><stop offset="0%" stop-color="#D9E021" stop-opacity=".502"/><stop offset="100%" stop-color="#FFF" stop-opacity=".502"/></linearGradient><path fill="#EFEFEF" d="M74.65 5.95Q72.5 4.7 69.95 4.7q-2.55 0-4.7 1.25L6.6 40.05q-4.7 2.8-4.7 8.2 0 5.3 4.7 8.1l58.65 34.1q2.15 1.25 4.7 1.25 2.55 0 4.7-1.25 4.6-2.7 4.75-8.15V14.1q-.15-5.45-4.75-8.15z" id="d"/><path fill="#FFF" d="M75.7 3.6Q73.6 2.35 71 2.35q-2.5 0-4.7 1.25L7.7 37.7Q3 40.5 3 45.85 3 51.2 7.7 54l58.6 34.1q2.2 1.2 4.7 1.2 2.6 0 4.7-1.2 4.65-2.75 4.8-8.2V11.75q-.15-5.45-4.8-8.15z" id="e"/><path fill="#D9E021" d="M72.2 8.45q-2.65-1.55-5.15 0l-56.6 32.9Q8 42.85 8 45.8q0 3 2.45 4.5l56.6 32.85q2.5 1.45 5.15 0 2.55-1.4 2.55-4.4V12.9q0-3-2.55-4.45z" id="g"/><path fill="url(#a)" d="M72.25 8.45q-2.65-1.55-5.2 0l-56.6 32.9Q8 42.85 8 45.75q0 3 2.45 4.5l56.6 32.9q2.55 1.45 5.2 0 2.5-1.45 2.5-4.45V12.85q0-2.95-2.5-4.4z" id="i"/><path fill="url(#b)" d="M72.25 8.45q-2.65-1.55-5.2 0l-56.6 32.9Q8 42.85 8 45.8q0 3 2.45 4.45l56.6 32.9q2.55 1.45 5.2 0 2.5-1.4 2.5-4.4V12.9q0-3-2.5-4.45z" id="k"/><path fill="url(#c)" d="M11.15 41Q8.5 42.55 8.5 45.6q0 3 2.65 4.65l42.15 23.9q-14.8-17.6-14.8-38.9.05-6.25 1.1-10.15L11.15 41z" id="l"/><path id="f" stroke="#EAE9E8" stroke-linejoin="round" stroke-linecap="round" fill="none" d="M71 2.35q2.6 0 4.7 1.25 4.65 2.7 4.8 8.15V79.9q-.15 5.45-4.8 8.2-2.1 1.2-4.7 1.2-2.5 0-4.7-1.2L7.7 54Q3 51.2 3 45.85q0-5.35 4.7-8.15L66.3 3.6q2.2-1.25 4.7-1.25z"/><path id="h" stroke="#8CC63F" stroke-width="2" stroke-linejoin="round" stroke-linecap="round" fill="none" d="M72.2 8.45q-2.65-1.55-5.15 0l-56.6 32.9Q8 42.85 8 45.8q0 3 2.45 4.5l56.6 32.85q2.5 1.45 5.15 0 2.55-1.4 2.55-4.4V12.9q0-3-2.55-4.45z"/></defs><use xlink:href="#d" transform="translate(-8.804 -10.835) scale(4.55004)"/><g transform="translate(-8.804 -10.835) scale(4.55004)"><use xlink:href="#e"/><use xlink:href="#f"/></g><g transform="translate(-8.804 -10.835) scale(4.55004)"><use xlink:href="#g"/><use xlink:href="#h"/></g><use xlink:href="#i" transform="translate(-8.804 -10.835) scale(4.55004)"/><g transform="translate(-102.535 42.855) scale(4.55004)"><clipPath id="j"><path fill="#FFF" d="M62.4-2h19.2v54.3H62.4z"/></clipPath><text clip-path="url(#j)" writing-mode="lr"><tspan x="64.5" y="40.75" baseline-shift="0%" font-family="HelveticaRounded_Black_Regular" font-size="45" fill="#FFF">-</tspan></text></g><use xlink:href="#k" transform="translate(-8.804 -10.835) scale(4.55004)"/><use xlink:href="#l" transform="translate(-8.804 -10.835) scale(4.55004)"/></svg>

<svg xmlns="http://www.w3.org/2000/svg" version="1.1" xmlns:xlink="http://www.w3.org/1999/xlink" preserveAspectRatio="none" x="0px" y="0px" width="358px" height="407px" viewBox="0 0 358 407">
<defs>
<linearGradient id="Gradient_1" gradientUnits="userSpaceOnUse" x1="49.53750000000001" y1="45.85" x2="90.2625" y2="45.85" spreadMethod="pad">
<stop  offset="0%" stop-color="#D9E021" stop-opacity="0.4"/>

<stop  offset="100%" stop-color="#FFFFFF" stop-opacity="0.4"/>
</linearGradient>

<linearGradient id="Gradient_2" gradientUnits="userSpaceOnUse" x1="88.75" y1="38.15" x2="59.650000000000006" y2="38.15" spreadMethod="pad">
<stop  offset="0%" stop-color="#FFFFFF" stop-opacity="0"/>

<stop  offset="100%" stop-color="#8CC63F" stop-opacity="0.4"/>
</linearGradient>

<linearGradient id="Gradient_3" gradientUnits="userSpaceOnUse" x1="55.4125" y1="49.65" x2="6.387499999999996" y2="49.65" spreadMethod="pad">
<stop  offset="0%" stop-color="#D9E021" stop-opacity="0.5019607843137255"/>

<stop  offset="100%" stop-color="#FFFFFF" stop-opacity="0.5019607843137255"/>
</linearGradient>

<g id="gr_menos_0_Layer0_0_FILL">
<path fill="#EFEFEF" stroke="none" d="
M 74.65 5.95
Q 72.5 4.7 69.95 4.7 67.4 4.7 65.25 5.95
L 6.6 40.05
Q 1.9 42.85 1.9 48.25 1.9 53.55 6.6 56.35
L 65.25 90.45
Q 67.4 91.7 69.95 91.7 72.5 91.7 74.65 90.45 79.25 87.75 79.4 82.3
L 79.4 14.1
Q 79.25 8.65 74.65 5.95 Z"/>
</g>

<g id="gr_menos_0_Layer0_1_FILL">
<path fill="#FFFFFF" stroke="none" d="
M 75.7 3.6
Q 73.6 2.35 71 2.35 68.5 2.35 66.3 3.6
L 7.7 37.7
Q 3 40.5 3 45.85 3 51.2 7.7 54
L 66.3 88.1
Q 68.5 89.3 71 89.3 73.6 89.3 75.7 88.1 80.35 85.35 80.5 79.9
L 80.5 11.75
Q 80.35 6.3 75.7 3.6 Z"/>
</g>

<g id="gr_menos_0_Layer0_2_FILL">
<path fill="#D9E021" stroke="none" d="
M 72.2 8.45
Q 69.55 6.9 67.05 8.45
L 10.45 41.35
Q 8 42.85 8 45.8 8 48.8 10.45 50.3
L 67.05 83.15
Q 69.55 84.6 72.2 83.15 74.75 81.75 74.75 78.75
L 74.75 12.9
Q 74.75 9.9 72.2 8.45 Z"/>
</g>

<g id="gr_menos_0_Layer0_3_FILL">
<path fill="url(#Gradient_1)" stroke="none" d="
M 72.25 8.45
Q 69.6 6.9 67.05 8.45
L 10.45 41.35
Q 8 42.85 8 45.75 8 48.75 10.45 50.25
L 67.05 83.15
Q 69.6 84.6 72.25 83.15 74.75 81.7 74.75 78.7
L 74.75 12.85
Q 74.75 9.9 72.25 8.45 Z"/>
</g>

<g id="gr_menos_0_Layer0_5_MEMBER_0_FILL">
<path fill="url(#Gradient_2)" stroke="none" d="
M 72.25 8.45
Q 69.6 6.9 67.05 8.45
L 10.45 41.35
Q 8 42.85 8 45.8 8 48.8 10.45 50.25
L 67.05 83.15
Q 69.6 84.6 72.25 83.15 74.75 81.75 74.75 78.75
L 74.75 12.9
Q 74.75 9.9 72.25 8.45 Z"/>
</g>

<g id="gr_menos_0_Layer0_5_MEMBER_1_FILL">
<path fill="url(#Gradient_3)" stroke="none" d="
M 11.15 41
Q 8.5 42.55 8.5 45.6 8.5 48.6 11.15 50.25
L 53.3 74.15
Q 38.5 56.55 38.5 35.25 38.55 29 39.6 25.1
L 11.15 41 Z"/>
</g>

<path id="gr_menos_0_Layer0_1_1_STROKES" stroke="#EAE9E8" stroke-width="1" stroke-linejoin="round" stroke-linecap="round" fill="none" d="
M 71 2.35
Q 73.6 2.35 75.7 3.6 80.35 6.3 80.5 11.75
L 80.5 79.9
Q 80.35 85.35 75.7 88.1 73.6 89.3 71 89.3 68.5 89.3 66.3 88.1
L 7.7 54
Q 3 51.2 3 45.85 3 40.5 7.7 37.7
L 66.3 3.6
Q 68.5 2.35 71 2.35 Z"/>

<path id="gr_menos_0_Layer0_2_1_STROKES" stroke="#8CC63F" stroke-width="2" stroke-linejoin="round" stroke-linecap="round" fill="none" d="
M 72.2 8.45
Q 69.55 6.9 67.05 8.45
L 10.45 41.35
Q 8 42.85 8 45.8 8 48.8 10.45 50.3
L 67.05 83.15
Q 69.55 84.6 72.2 83.15 74.75 81.75 74.75 78.75
L 74.75 12.9
Q 74.75 9.9 72.2 8.45 Z"/>

<font horiz-adv-x="2048">
<!--  Nome da fonte: Times New Roman
ID do fornecedor: TMC 
© 2010 The Monotype Corporation. All Rights Reserved.
URL for more Information: http://www.adobe.com/go/font_vendor_id?ID=TMC&Name=Times%20New%20Roman&PSName=TimesNewRomanPSMT&applanguage=pt_BR-->
<font-face font-family="HelveticaRounded_Black_Regular" units-per-em="2048" ascent="1825" descent="443"/>

<glyph unicode="-" horiz-adv-x="682" d="
M 83 535
L 600 535 600 384 83 384 83 535 Z"/>
</font>
</defs>

<g transform="matrix( 6.77215576171875, 0, 0, 6.77215576171875, 0,0) ">
<g transform="matrix( 0.671875, 0, 0, 0.671875, -1.3,-1.6) ">
<g transform="matrix( 1, 0, 0, 1, 0,0) ">
<use xlink:href="#gr_menos_0_Layer0_0_FILL"/>
</g>

<g transform="matrix( 1, 0, 0, 1, 0,0) ">
<use xlink:href="#gr_menos_0_Layer0_1_FILL"/>

<use xlink:href="#gr_menos_0_Layer0_1_1_STROKES"/>
</g>

<g transform="matrix( 1, 0, 0, 1, 0,0) ">
<use xlink:href="#gr_menos_0_Layer0_2_FILL"/>

<use xlink:href="#gr_menos_0_Layer0_2_1_STROKES"/>
</g>

<g transform="matrix( 1, 0, 0, 1, 0,0) ">
<use xlink:href="#gr_menos_0_Layer0_3_FILL"/>
</g>

<g transform="matrix( 1, 0, 0, 1, -20.6,11.8) ">
<clipPath id="Mask_Mask_1">
<rect x="62.4" y="-2" width="19.2" height="54.3" fill="#FFFFFF" stroke="none"/>
</clipPath>

<text clip-path="url(#Mask_Mask_1)" writing-mode="lr"><tspan x="64.5" y="40.75" baseline-shift="0%" kerning="auto" font-family="HelveticaRounded_Black_Regular" font-size="45" fill="#FFFFFF" xml:space="preserve">-</tspan></text>
</g>

<g transform="matrix( 1, 0, 0, 1, 0,0) ">
<use xlink:href="#gr_menos_0_Layer0_5_MEMBER_0_FILL"/>
</g>

<g transform="matrix( 1, 0, 0, 1, 0,0) ">
<use xlink:href="#gr_menos_0_Layer0_5_MEMBER_1_FILL"/>
</g>
</g>
</g>
</svg>
